apps/hetzner/ruby/images/logo_flat.svg

<svg viewBox="0 0 50 50" xmlns="http://www.w3.org/2000/svg">
<path d="M13.7048 44.04C24.7733 45.5512 35.6451 47.0354 46.733 48.5486C42.9554 42.2596 39.2749 36.1313 35.565 29.9531L13.7048 44.04V44.04ZM49.8569 9.22862C48.8813 10.6939 47.9037 12.1579 46.9292 13.624C43.5828 18.6586 40.2368 23.6931 36.8936 28.73C36.7074 29.0105 36.466 29.233 36.7284 29.6654C39.9587 34.9997 43.1637 40.3498 46.3767 45.6951C46.8837 46.5393 47.3963 47.3804 48.052 48.1904C48.7016 35.217 49.3508 22.2431 50 9.26973L49.8569 9.22862V9.22862ZM5.7583 25.8612C5.90942 26.0042 6.28662 26.0876 6.46232 26.001C9.5609 24.4781 12.6792 22.9891 15.7101 21.3408C16.6986 20.8037 17.4587 19.8405 18.3102 19.0595C21.1299 16.4736 23.9452 13.8823 26.7592 11.2907C26.9313 11.1315 27.1352 10.9776 27.238 10.7769C28.2487 8.80146 29.2421 6.81593 30.2705 4.77318C29.0442 4.31216 27.8816 3.86122 26.7044 3.45098C26.5449 3.39536 26.2934 3.50578 26.1205 3.6021C23.3959 5.12418 20.6201 6.56527 17.9822 8.22518C16.6624 9.05574 15.5872 10.2796 14.4185 11.3455C12.535 13.0647 10.6538 14.7879 8.79764 16.5368C8.30519 17.0011 7.85626 17.5314 7.47262 18.0899C6.2032 19.9384 4.97167 21.8136 3.68372 23.7419C4.40346 24.4862 5.05791 25.1979 5.7583 25.8612V25.8612ZM17.0831 23.334C15.5417 29.8459 14.0095 36.3211 12.4262 43.0091C19.8504 38.2253 27.1034 33.5518 34.3084 28.9098C28.5747 27.054 22.8595 25.2039 17.0831 23.334ZM47.9645 9.29149C41.6916 10.3397 35.5686 11.3624 29.3666 12.3985C31.479 17.537 33.5492 22.5724 35.6782 27.7508C39.7971 21.5613 43.8347 15.4959 47.9645 9.29149V9.29149ZM17.3418 22.0022C22.9905 23.8357 28.5268 25.6331 34.2238 27.4828C32.1081 22.3286 30.065 17.3545 27.9795 12.2752C24.4272 15.5229 20.928 18.7226 17.3418 22.0022ZM5.99163 29.6585C3.98838 34.4472 2.05323 39.0732 0.0830156 43.7825C3.8695 43.6704 7.53992 43.562 11.3365 43.45C9.55405 38.8511 7.80669 34.3425 5.99163 29.6585V29.6585ZM11.4695 40.1749L11.6089 40.1443C12.9601 34.5262 14.3307 28.9469 15.7101 23.1092C12.6329 24.7086 9.69752 26.2339 6.68195 27.8016C8.22097 31.8016 9.86194 36.0213 11.4695 40.1749V40.1749ZM45.6941 8.38033C43.8971 7.9044 42.1002 7.42686 40.3025 6.95416C37.7185 6.27472 35.1325 5.60374 32.5502 4.91826C32.2274 4.83242 31.9941 4.77641 31.8043 5.16529C30.8915 7.03516 29.9505 8.89092 29.0232 10.7539C28.9946 10.8116 29.0007 10.8861 28.9785 11.0308C34.5744 10.1829 40.1328 9.34025 45.6904 8.49801L45.6941 8.38033ZM35.2692 4.12719L49.915 8.17884C49.0751 5.78549 48.2962 3.56623 47.495 1.2837L35.2905 3.98977L35.2692 4.12719V4.12719ZM12.7111 45.1188C10.8972 44.9096 9.035 45.1019 7.19536 45.1337C5.68415 45.1591 4.17295 45.2167 2.66174 45.2639C2.50619 45.2687 2.35104 45.3001 2.19588 45.4678C14.6897 46.6227 27.1832 47.7777 39.6766 48.9335L39.702 48.7666C35.6971 48.2198 31.6918 47.6729 27.6869 47.1265C22.6963 46.445 17.7142 45.6955 12.7111 45.1188V45.1188ZM0.330048 39.4717C1.93999 35.736 3.54308 31.9979 5.15946 28.265C5.32106 27.8906 5.30857 27.6363 4.99222 27.3349C4.31601 26.6913 3.68775 25.9978 2.94867 25.2289C1.94966 30.1615 0.975232 34.9719 0 39.782L0.10921 39.8332C0.183763 39.7135 0.274838 39.6003 0.330048 39.4717V39.4717ZM32.0614 3.14108C34.7763 2.44068 37.5307 1.89302 40.269 1.28209C40.4464 1.2422 40.6196 1.18376 40.7941 1.13379L40.7671 1C36.9101 1.51865 33.0535 2.0377 29.0023 2.58294C30.1069 3.06532 30.958 3.42559 32.0614 3.14108Z"/>
</svg>

<svg viewBox="0 0 50 50" xmlns="http://www.w3.org/2000/svg">
  <path d="m13.705 44.04 33.028 4.509a158225 158225 0 0 1-11.168-18.596L13.705 44.04ZM49.857 9.229c-.976 1.465-1.953 2.929-2.928 4.395A27839.22 27839.22 0 0 0 36.894 28.73c-.187.28-.428.503-.166.935 3.23 5.335 6.436 10.685 9.649 16.03.507.844 1.02 1.685 1.675 2.495L50 9.27l-.143-.041ZM5.758 25.86c.151.143.529.227.704.14 3.099-1.523 6.217-3.012 9.248-4.66.989-.537 1.749-1.5 2.6-2.282 2.82-2.585 5.635-5.177 8.45-7.768.171-.16.375-.313.478-.514 1.01-1.976 2.004-3.961 3.032-6.004-1.226-.46-2.388-.912-3.566-1.322-.16-.056-.41.055-.584.151-2.724 1.522-5.5 2.963-8.138 4.623-1.32.83-2.395 2.055-3.563 3.12a483.426 483.426 0 0 0-5.621 5.192 9.68 9.68 0 0 0-1.325 1.553c-1.27 1.848-2.501 3.724-3.79 5.652.72.744 1.375 1.456 2.075 2.12Zm11.325-2.527-4.657 19.675 21.882-14.1-17.225-5.575ZM47.965 9.291c-6.273 1.049-12.396 2.071-18.598 3.107l6.311 15.353L47.965 9.29ZM17.341 22.002l16.882 5.48-6.244-15.207-10.638 9.727ZM5.992 29.66.083 43.782l11.253-.332-5.344-13.792Zm5.478 10.516.139-.03c1.351-5.619 2.722-11.198 4.101-17.036l-9.028 4.693c1.539 4 3.18 8.22 4.787 12.373ZM45.694 8.38c-1.797-.476-3.594-.953-5.392-1.426-2.584-.68-5.17-1.35-7.752-2.036-.323-.086-.556-.142-.746.247-.912 1.87-1.853 3.726-2.78 5.589-.03.058-.023.132-.046.277L45.69 8.498l.004-.118ZM35.27 4.127 49.915 8.18l-2.42-6.895L35.291 3.99l-.022.137ZM12.711 45.12c-1.814-.21-3.676-.017-5.516.015-1.51.025-3.022.083-4.533.13a.6.6 0 0 0-.466.204l37.48 3.465.026-.166-12.015-1.64c-4.99-.682-9.973-1.431-14.976-2.008ZM.33 39.472c1.61-3.736 3.213-7.474 4.83-11.207.161-.374.149-.629-.168-.93-.676-.644-1.304-1.337-2.043-2.106L0 39.782l.11.051c.074-.12.165-.233.22-.361Zm31.731-36.33c2.715-.701 5.47-1.249 8.208-1.86.177-.04.35-.098.525-.148L40.767 1 29.002 2.583c1.105.482 1.956.843 3.06.558Z"/>
</svg>
